X:16051
T:Willafjord
C:anon.
O:Shetland
R:Reel?
Z:Transcribed by Frank Nordberg - http://www.musicaviva.com
F:http://abc.musicaviva.com/tunes/shetland/willafjord-d/willafjord-d-1.abc
M:C
Q:1/2=120
K:D
B2|"D"A2DA- "D/F#"ADFA|"G"B2GB- BDGB|"D"A2DA- ADFA|"Em"EFGA "A7"GFED|
"D"A2DA- "D/F#"ADFA|"G"B2GB- BDGB|"A7"ABcd efge|"D"f2"G"d2 "D"d2:|
e2|"D"f2df- fAdf|"Em"geaf "G"gfed|"D"f2df- fAdf|"A7"e2ce- eAce|
"D"f2df- fAdf|"Em"geaf "G"gfed|"A7"ABcd efge|"D"f2"G"d2 "D"d2:|
W:
W:
W:  From Musica Viva - http://www.musicaviva.com
W:  the Internet center for free sheet music downloads.

